svgs/solid/graduation-cap.svg

<svg xmlns="http://www.w3.org/2000/svg" viewBox="0 0 640 512"><!-- Font Awesome Pro 6.0.0-alpha2 by @fontawesome - https://fontawesome.com License - https://fontawesome.com/license (Commercial License) --><path d="M623.953 136.914L341.215 35.684C327.482 30.773 312.518 30.773 298.785 35.684L16.047 136.914C6.438 140.352 0 149.617 0 160S6.438 179.648 16.047 183.086L76.008 204.555C64.121 220.359 55.811 238.734 51.518 258.531C40.047 263.395 32 274.758 32 288C32 297.953 36.814 306.488 43.939 312.359L19.105 461.367C17.48 471.121 25 480 34.887 480H93.113C103 480 110.52 471.121 108.895 461.367L84.061 312.359C91.186 306.488 96 297.953 96 288C96 277.707 90.826 268.969 83.277 263.113C87.529 245.352 96.154 229.289 108.213 216.086L298.785 284.316C312.518 289.227 327.482 289.227 341.215 284.316L623.953 183.086C633.562 179.648 640 170.383 640 160S633.562 140.352 623.953 136.914ZM351.988 314.449C341.688 318.133 330.926 320 320 320C309.076 320 298.312 318.133 287.998 314.445L142.781 262.453L128 405.328C128 446.602 213.999 480 320 480C425.999 480 512 446.602 512 405.328L497.219 262.453L351.988 314.449Z"/></svg>

<svg xmlns="http://www.w3.org/2000/svg" viewBox="0 0 640 512"><!--! Font Awesome Pro 6.0.0-alpha3 by @fontawesome - https://fontawesome.com License - https://fontawesome.com/license (Commercial License) --><path d="M623.1 136.9l-282.7-101.2c-13.73-4.91-28.7-4.91-42.43 0L16.05 136.9C6.438 140.4 0 149.6 0 160s6.438 19.65 16.05 23.09L76.07 204.6c-11.89 15.8-20.26 34.16-24.55 53.95C40.05 263.4 32 274.8 32 288c0 9.953 4.814 18.49 11.94 24.36l-24.83 149C17.48 471.1 25 480 34.89 480H93.11c9.887 0 17.41-8.879 15.78-18.63l-24.83-149C91.19 306.5 96 297.1 96 288c0-10.29-5.174-19.03-12.72-24.89c4.252-17.76 12.88-33.82 24.94-47.03l190.6 68.23c13.73 4.91 28.7 4.91 42.43 0l282.7-101.2C633.6 179.6 640 170.4 640 160S633.6 140.4 623.1 136.9zM351.1 314.4C341.7 318.1 330.9 320 320 320c-10.92 0-21.69-1.867-32-5.555L142.8 262.5L128 405.3C128 446.6 213.1 480 320 480c105.1 0 192-33.4 192-74.67l-14.78-142.9L351.1 314.4z"/></svg>
